images/icons/recurring.svg

<svg width="15" height="16" viewBox="0 0 15 16" fill="none" xmlns="http://www.w3.org/2000/svg">
<path d="M5.38576 0.601287C-0.701744 1.51396 -1.54038 10.2229 2.7125 13.6792C2.35027 13.8531 1.98671 14.0245 1.62002 14.1889C1.13185 14.4079 1.01984 15.1075 1.2681 15.5313C1.55974 16.029 2.12216 16.1019 2.6103 15.8831C3.50502 15.482 4.38251 15.046 5.25905 14.6078C5.48357 14.4957 5.62002 14.338 5.6926 14.1638C5.89215 13.9247 5.96077 13.5904 5.90591 13.2548C5.77751 12.4627 5.69456 11.6676 5.64678 10.8669C5.57164 9.60976 3.60908 9.60235 3.68482 10.8669C3.70643 11.2287 3.73801 11.5893 3.77455 11.9494C0.913614 9.23394 1.43832 3.1633 5.90734 2.4932C7.15532 2.30611 6.62309 0.415833 5.38576 0.601287Z" fill="#F4436C"/>
<path d="M12.0107 2.32066C12.373 2.14677 12.7365 1.97542 13.1034 1.81098C13.5915 1.59217 13.7034 0.892448 13.4552 0.468776C13.1635 -0.0290383 12.6011 -0.10195 12.113 0.116785C11.2184 0.517849 10.341 0.953823 9.46443 1.39212C9.23987 1.5043 9.10346 1.66183 9.03068 1.83621C8.83113 2.07519 8.76274 2.40946 8.8173 2.74529C8.94593 3.53725 9.02865 4.33229 9.07663 5.13313C9.15193 6.39015 11.1142 6.39756 11.0386 5.13313C11.017 4.77123 10.9854 4.41063 10.949 4.05052C13.8096 6.76597 13.2847 12.8369 8.8158 13.5068C7.56799 13.6938 8.10015 15.584 9.33732 15.3985C15.4249 14.4859 16.2635 5.77713 12.0107 2.32066Z" fill="#F4436C"/>
</svg>

<svg viewBox="0 0 15 16" xmlns="http://www.w3.org/2000/svg"><path d="M5.386.601c-6.088.913-6.926 9.622-2.674 13.078-.362.174-.725.345-1.092.51-.488.219-.6.918-.352 1.342.292.498.854.57 1.342.352a69.736 69.736 0 002.65-1.275.868.868 0 00.433-.444c.2-.24.268-.574.213-.91a23.734 23.734 0 01-.26-2.387c-.074-1.257-2.037-1.265-1.961 0 .021.362.053.722.09 1.082C.914 9.234 1.438 3.163 5.907 2.493c1.248-.187.716-2.077-.521-1.892zM12.01 2.32c.363-.173.726-.345 1.093-.509.489-.219.6-.919.352-1.342-.291-.498-.854-.571-1.342-.352-.895.4-1.772.837-2.649 1.275a.869.869 0 00-.433.444c-.2.24-.268.573-.214.91.129.791.212 1.586.26 2.387.075 1.257 2.037 1.265 1.962 0a26.408 26.408 0 00-.09-1.082c2.86 2.715 2.336 8.786-2.133 9.456-1.248.187-.716 2.077.521 1.892 6.088-.913 6.927-9.622 2.674-13.078z"/></svg>
